imgs/circle_four_students.svg

<svg height="161" viewBox="0 0 95 161" width="95" xmlns="http://www.w3.org/2000/svg"><g fill="none" fill-rule="evenodd"><g stroke="#000" transform="translate(2 68)"><path d="m34.5434714 61c0-9.0754531-2.8661193-14.5462887-5.1085538-16.1087093s-3.1564744-4.486575-3.1564744-6.0921367c0-1.6055616-1.4189255-18.6969379-1.2670692-20.0905549.1518563-1.3940764 2.8086446-2.0394396 4.4502714.2967293 1.6416267 2.3366281 3.292284 11.8055614 4.4532647 11.7476854 1.0044805-.0500674 1.3576425-17.1071524 1.3051661-24.39631144-.0107848-1.48737142 1.5563712-2.784435 3.1375753-2.8192757 1.414583-.03116932 2.8404092 1.06210073 3.1577099 2.08388319.495971 1.59710165.2176098 19.16955855.3341723 18.55175535.0747672-.3987012.1532495-21.39773949.2317318-21.78266074.2040685-1.00240987 1.85096-2.29000438 3.5094228-2.38529367 1.4702747-.08447668 2.9496436.89058452 3.4408793 2.01323375.0738384.16949397.0843124 22.33845396.3908113 21.46388346.0673369-.1910826.1416397-18.12618007.2247659-18.33517669.4371504-1.1019813 1.8716416-2.08361659 3.2900583-2.01977019 1.4189026.06386828 2.8217197 1.17354273 3.1939939 1.96556887.459284.97608312.0686532 20.15582881.606737 21.13226151s-.2159257-14.9908213.1114709-15.5360499c.4229707-.7045614 1.6216019-1.62616606 2.8001032-1.5114595.9026747.08785964 1.7935396 1.0201598 2.3149907 1.7017766.4563707.5965469.7964723 14.0252879.9071286 15.1470961.2112786 2.1433276.3329056 11.680606-1.0688989 19.867982-.5578258 3.2580356-2.2079743 5.4869886-3.0825513 5.4869886-.5830513 0-.7758487 3.2061849-.5783922 9.6185546" stroke-width="3" transform=""/><g stroke-width="2.5"><path d="m6.78088756 92c0-6.5462285-2.03645319-10.492405-3.6297619-11.6193969s-2.24275816-3.236218-2.24275816-4.3943281c0-1.15811-1.00818388-13.4863158-.90028599-14.4915478.10789788-1.0055633 1.99561591-1.4710711 3.16203493.2140342 1.16641902 1.6854367 2.33925441 8.5154869 3.16416179 8.4737403.71370985-.0361141.96464071-12.3395853.92735489-17.5973393-.00766293-1.0728581 1.10584269-2.008445 2.22932982-2.033576 1.00509836-.0224827 2.01818546.7661055 2.24363596 1.5031289.3524004 1.1520078.1546175 13.8272226.2374382 13.381594.053124-.2875878.1088878-15.434435.1646515-15.7120831.1449961-.7230498 1.3151558-1.6518065 2.4935373-1.7205397 1.0446688-.060934 2.0957994.6423888 2.4448353 1.4521686.0524641.1222579.0599062 16.1129832.2776817 15.4821454.0478446-.13783.1006387-13.0746217.1597021-13.2253733.3106069-.7948718 1.3298506-1.5029366 2.337673-1.4568834 1.0081677.0460689 2.0049061.8464898 2.2694167 1.4177873.3263334.70406.0487799 14.5386307.4311026 15.2429428s-.1534208-10.8130515.079203-11.2063311c.3005318-.5082082 1.1521908-1.1729722 1.989547-1.0902331.6413742.0633742 1.2743571.735853 1.6448618 1.227511.3242635.4302962.5659146 10.1166011.6445388 10.9257742.150119 1.5460069.2365382 8.4253552-.7594808 14.3310034-.3963499 2.3500585-1.5688239 3.9578279-2.1902338 3.9578279-.4142733 0-.5512609 2.3126579-.4109629 6.9379738" transform=""/><path d="m70.7808876 92c0-6.5462285-2.0364532-10.492405-3.6297619-11.6193969s-2.2427582-3.236218-2.2427582-4.3943281c0-1.15811-1.0081839-13.4863158-.900286-14.4915478.1078979-1.0055633 1.9956159-1.4710711 3.1620349.2140342 1.1664191 1.6854367 2.3392545 8.5154869 3.1641618 8.4737403.7137099-.0361141.9646407-12.3395853.9273549-17.5973393-.0076629-1.0728581 1.1058427-2.008445 2.2293298-2.033576 1.0050984-.0224827 2.0181855.7661055 2.243636 1.5031289.3524004 1.1520078.1546175 13.8272226.2374382 13.381594.053124-.2875878.1088878-15.434435.1646515-15.7120831.1449961-.7230498 1.3151558-1.6518065 2.4935373-1.7205397 1.0446688-.060934 2.0957994.6423888 2.4448353 1.4521686.0524641.1222579.0599062 16.1129832.2776817 15.4821454.0478446-.13783.1006387-13.0746217.1597021-13.2253733.3106069-.7948718 1.3298506-1.5029366 2.337673-1.4568834 1.0081677.0460689 2.0049061.8464898 2.2694167 1.4177873.3263334.70406.0487799 14.5386307.4311026 15.2429428s-.1534208-10.8130515.079203-11.2063311c.3005318-.5082082 1.1521908-1.1729722 1.989547-1.0902331.6413742.0633742 1.2743571.735853 1.6448618 1.227511.3242635.4302962.5659146 10.1166011.6445388 10.9257742.150119 1.5460069.2365382 8.4253552-.7594808 14.3310034-.3963499 2.3500585-1.5688239 3.9578279-2.1902338 3.9578279-.4142733 0-.5512609 2.3126579-.4109629 6.9379738" transform="matrix(-1 0 0 1 155 0)"/></g></g><g transform="translate(24 2)"><circle cx="24" cy="24" fill-rule="nonzero" r="24" stroke="#000" stroke-width="4"/><path d="m29.3652344 26.8769531h3.1816406v3.4277344h-3.1816406v5.6953125h-4.2714844v-5.6953125h-11.0566406l-.1230469-2.6015625 11.0390625-17.296875h4.4121094zm-10.96875 0h6.6972656v-10.6875l-.3164062.5625z" fill="#000"/></g></g></svg>

<?xml version="1.0" encoding="UTF-8"?>
<svg width="95px" height="161px" viewBox="0 0 95 161" version="1.1" xmlns="http://www.w3.org/2000/svg" xmlns:xlink="http://www.w3.org/1999/xlink">
    <!-- Generator: Sketch 51.2 (57519) - http://www.bohemiancoding.com/sketch -->
    <title>Group 15</title>
    <desc>Created with Sketch.</desc>
    <defs></defs>
    <g id="Page-1" stroke="none" stroke-width="1" fill="none" fill-rule="evenodd">
        <g id="Alt-Lab-updated" transform="translate(-590.000000, -2455.000000)">
            <g id="Group-15" transform="translate(592.000000, 2457.000000)">
                <g id="Group-28" transform="translate(0.000000, 66.000000)" stroke="#000000">
                    <path d="M34.5434714,61 C34.5434714,51.9245469 31.6773521,46.4537113 29.4349176,44.8912907 C27.1924831,43.3288701 26.2784432,40.4047157 26.2784432,38.799154 C26.2784432,37.1935924 24.8595177,20.1022161 25.011374,18.7085991 C25.1632303,17.3145227 27.8200186,16.6691595 29.4616454,19.0053284 C31.1032721,21.3419565 32.7539294,30.8108898 33.9149101,30.7530138 C34.9193906,30.7029464 35.2725526,13.6458614 35.2200762,6.35670236 C35.2092914,4.86933094 36.7764474,3.57226736 38.3576515,3.53742666 C39.7722345,3.50625734 41.1980607,4.59952739 41.5153614,5.62130985 C42.0113324,7.2184115 41.7329712,24.7908684 41.8495337,24.1730652 C41.9243009,23.774364 42.0027832,2.77532571 42.0812655,2.39040446 C42.285334,1.38799459 43.9322255,0.100400082 45.5906883,0.00511079328 C47.060963,-0.0793658887 48.5403319,0.895695306 49.0315676,2.01834454 C49.105406,2.18783851 49.11588,24.3567985 49.4223789,23.482228 C49.4897158,23.2911454 49.5640186,5.35604793 49.6471448,5.14705131 C50.0842952,4.04507001 51.5187864,3.06343472 52.9372031,3.12728112 C54.3561057,3.1911494 55.7589228,4.30082385 56.131197,5.09284999 C56.590481,6.06893311 56.1998502,25.2486788 56.737934,26.2251115 C57.2760178,27.2015442 56.5220083,11.2342902 56.8494049,10.6890616 C57.2723756,9.9845002 58.4710068,9.06289554 59.6495081,9.1776021 C60.5521828,9.26546174 61.4430477,10.1977619 61.9644988,10.8793787 C62.4208695,11.4759256 62.7609711,24.9046666 62.8716274,26.0264748 C63.082906,28.1698024 63.204533,37.7070808 61.8027285,45.8944568 C61.2449027,49.1524924 59.5947542,51.3814454 58.7201772,51.3814454 C58.1371259,51.3814454 57.9443285,54.5876303 58.141785,61" id="handoutline-copy-12" stroke-width="3" transform="translate(44.000000, 30.500000) rotate(-360.000000) translate(-44.000000, -30.500000) "></path>
                    <path d="M6.78088756,92 C6.78088756,85.4537715 4.74443437,81.507595 3.15112566,80.3806031 C1.55781695,79.2536112 0.908367502,77.1443851 0.908367502,75.986275 C0.908367502,74.828165 -0.0998163784,62.4999592 0.00808150578,61.4947272 C0.11597939,60.4891639 2.00369742,60.0236561 3.17011644,61.7087614 C4.33653546,63.3941981 5.50937085,70.2242483 6.33427823,70.1825017 C7.04798808,70.1463876 7.29891894,57.8429164 7.26163312,52.5851624 C7.25397019,51.5123043 8.36747581,50.5767174 9.49096294,50.5515864 C10.4960613,50.5291037 11.5091484,51.3176919 11.7345989,52.0547153 C12.0869993,53.2067231 11.8892164,65.8819379 11.9720371,65.4363093 C12.0251611,65.1487215 12.0809249,50.0018743 12.1366886,49.7242262 C12.2816847,49.0011764 13.4518444,48.0724197 14.6302259,48.0036865 C15.6748947,47.9427525 16.7260253,48.6460753 17.0750612,49.4558551 C17.1275253,49.578113 17.1349674,65.5688383 17.3527429,64.9380005 C17.4005875,64.8001705 17.4533816,51.8633788 17.512445,51.7126272 C17.8230519,50.9177554 18.8422956,50.2096906 19.850118,50.2557438 C20.8582857,50.3018127 21.8550241,51.1022336 22.1195347,51.6735311 C22.4458681,52.3775911 22.1683146,66.2121618 22.5506373,66.9164739 C22.93296,67.620786 22.3972165,56.1034224 22.6298403,55.7101428 C22.9303721,55.2019346 23.7820311,54.5371706 24.6193873,54.6199097 C25.2607615,54.6832839 25.8937444,55.3557627 26.2642491,55.8474207 C26.5885126,56.2777169 26.8301637,65.9640218 26.9087879,66.7731949 C27.0589069,68.3192018 27.1453261,75.1985501 26.1493071,81.1041983 C25.7529572,83.4542568 24.5804832,85.0620262 23.9590733,85.0620262 C23.5448,85.0620262 23.4078124,87.3746841 23.5481104,92" id="handoutline-copy-14" stroke-width="2.5" transform="translate(13.500000, 70.000000) rotate(-360.000000) translate(-13.500000, -70.000000) "></path>
                    <path d="M70.7808876,92 C70.7808876,85.4537715 68.7444344,81.507595 67.1511257,80.3806031 C65.557817,79.2536112 64.9083675,77.1443851 64.9083675,75.986275 C64.9083675,74.828165 63.9001836,62.4999592 64.0080815,61.4947272 C64.1159794,60.4891639 66.0036974,60.0236561 67.1701164,61.7087614 C68.3365355,63.3941981 69.5093709,70.2242483 70.3342782,70.1825017 C71.0479881,70.1463876 71.2989189,57.8429164 71.2616331,52.5851624 C71.2539702,51.5123043 72.3674758,50.5767174 73.4909629,50.5515864 C74.4960613,50.5291037 75.5091484,51.3176919 75.7345989,52.0547153 C76.0869993,53.2067231 75.8892164,65.8819379 75.9720371,65.4363093 C76.0251611,65.1487215 76.0809249,50.0018743 76.1366886,49.7242262 C76.2816847,49.0011764 77.4518444,48.0724197 78.6302259,48.0036865 C79.6748947,47.9427525 80.7260253,48.6460753 81.0750612,49.4558551 C81.1275253,49.578113 81.1349674,65.5688383 81.3527429,64.9380005 C81.4005875,64.8001705 81.4533816,51.8633788 81.512445,51.7126272 C81.8230519,50.9177554 82.8422956,50.2096906 83.850118,50.2557438 C84.8582857,50.3018127 85.8550241,51.1022336 86.1195347,51.6735311 C86.4458681,52.3775911 86.1683146,66.2121618 86.5506373,66.9164739 C86.93296,67.620786 86.3972165,56.1034224 86.6298403,55.7101428 C86.9303721,55.2019346 87.7820311,54.5371706 88.6193873,54.6199097 C89.2607615,54.6832839 89.8937444,55.3557627 90.2642491,55.8474207 C90.5885126,56.2777169 90.8301637,65.9640218 90.9087879,66.7731949 C91.0589069,68.3192018 91.1453261,75.1985501 90.1493071,81.1041983 C89.7529572,83.4542568 88.5804832,85.0620262 87.9590733,85.0620262 C87.5448,85.0620262 87.4078124,87.3746841 87.5481104,92" id="handoutline-copy-15" stroke-width="2.5" transform="translate(77.500000, 70.000000) scale(-1, 1) rotate(-360.000000) translate(-77.500000, -70.000000) "></path>
                </g>
                <g id="Group-11" transform="translate(22.000000, 0.000000)">
                    <circle id="Oval-Copy-7" stroke="#000000" stroke-width="4" fill-rule="nonzero" cx="24" cy="24" r="24"></circle>
                    <path d="M29.3652344,26.8769531 L32.546875,26.8769531 L32.546875,30.3046875 L29.3652344,30.3046875 L29.3652344,36 L25.09375,36 L25.09375,30.3046875 L14.0371094,30.3046875 L13.9140625,27.703125 L24.953125,10.40625 L29.3652344,10.40625 L29.3652344,26.8769531 Z M18.3964844,26.8769531 L25.09375,26.8769531 L25.09375,16.1894531 L24.7773438,16.7519531 L18.3964844,26.8769531 Z" id="4" fill="#000000"></path>
                </g>
            </g>
        </g>
    </g>
</svg>
